X:7
T:Mele's
T:Harmony 1
R:Reel
C:Chris Gray
L:1/8
M:C|
K:D
Q:"87 bpm"
[| {gAGAG}A2 {g}AB {gcd}c2 {g}B{d}A | {g}eA{d}ce {g}fd{G}df | {g}eA{g}c{d}A {gcd}c2 {g}B{d}A | {g}fe{A}ec {A}B2 {g}cB |
{gAGAG}A2 {g}AB {gcd}c2 {g}B{d}A | {g}eA{d}ce {g}fA{g}df | {ag}a2 {cd}ce {g}dB{g}GA | {g}B{G}B{g}Bc {G}A3e ||
d6 cd | c2 e2 ef3 | e8 | a2 a2 e2 e2 | 
d4  e2cd | cada cd e2 | e2 e2 d4 | {g}d{e}d{G}de afec |
{g}f2AB f2AB | ce2 e ef2 d | e2cd e2Bc | a2 a2 e2 {g}cB |
{gAGAG}A2 {g}AB {gcd}c2 {g}B{d}A [M:3/2]| {g}eA{d}ce {g}dABd [M:C|]| {g}d2f2 a2 {g}e2 | {g}d{e}d{G}de A2 z2 |]

